X: 15807
T: Goodnatured Man, The
R: hornpipe
M: 4/4
K: Gmajor
d2|:"G"g2bg d2gd|"G"BcdB G2AB|"C"c2ec A2 cA|"D" FGAB cdef|
"G"g2 bg d2 gd|"G"BcdB G2 AB|"C"cedc "D7"BAGF|1 "D"A2 "G"G2 G2 d2:|2 "D"A2 "G"G2 G2 Bc||
|:"G"dBdB g2 g2|"C"ecec a2 a2|"D"fdfd "G" gfgb|"D" agfe defd|
"G"g2 bg d2 gd|"G"BcdB G2 AB|"C"cedc "D7"BAGF|1 "D"A2 "G"G2 G2 Bc:|2 "D"A2 "G"G2 G4||

